section-11/facebook.svg

<svg width="24" height="23" viewBox="0 0 24 23" fill="none" xmlns="http://www.w3.org/2000/svg">
<g clip-path="url(#clip0_465_328)">
<path d="M13.62 22.9551H9.76908C9.12585 22.9551 8.60261 22.4546 8.60261 21.8394V13.5317H6.35592C5.71269 13.5317 5.18945 13.031 5.18945 12.416V8.8561C5.18945 8.24088 5.71269 7.74043 6.35592 7.74043H8.60261V5.95776C8.60261 4.19019 9.18291 2.68636 10.2806 1.60912C11.3832 0.526955 12.9241 -0.0449219 14.7367 -0.0449219L17.6736 -0.0403595C18.3157 -0.0393066 18.8381 0.461151 18.8381 1.07532V4.38059C18.8381 4.9958 18.315 5.49626 17.672 5.49626L15.6946 5.49696C15.0915 5.49696 14.938 5.6126 14.9051 5.64805C14.851 5.70683 14.7866 5.87301 14.7866 6.33188V7.74025H17.5234C17.7294 7.74025 17.929 7.78886 18.1005 7.88046C18.4706 8.07822 18.7006 8.45216 18.7006 8.85628L18.6992 12.4162C18.6992 13.031 18.1759 13.5315 17.5327 13.5315H14.7866V21.8394C14.7866 22.4546 14.2632 22.9551 13.62 22.9551ZM10.0124 21.6067H13.3767V12.928C13.3767 12.5172 13.7262 12.1831 14.1555 12.1831H17.2894L17.2907 9.08878H14.1553C13.726 9.08878 13.3767 8.75468 13.3767 8.34389V6.33188C13.3767 5.8051 13.4327 5.20602 13.8484 4.75575C14.3507 4.21143 15.1424 4.14861 15.6942 4.14861L17.4283 4.1479V1.30765L14.7356 1.30344C11.8226 1.30344 10.0124 3.08698 10.0124 5.95776V8.34389C10.0124 8.7545 9.66303 9.08878 9.23373 9.08878H6.59919V12.1831H9.23373C9.66303 12.1831 10.0124 12.5172 10.0124 12.928V21.6067ZM17.6709 1.308H17.671H17.6709Z" fill="black"/>
</g>
<defs>
<clipPath id="clip0_465_328">
<rect width="24" height="23" fill="white"/>
</clipPath>
</defs>
</svg>

<svg xmlns="http://www.w3.org/2000/svg" width="24" height="23" fill="none"><g clip-path="url(#a)"><path fill="#000" d="M13.62 22.955H9.77c-.644 0-1.167-.5-1.167-1.116v-8.307H6.356c-.643 0-1.167-.501-1.167-1.116v-3.56c0-.615.524-1.116 1.167-1.116h2.247V5.958c0-1.768.58-3.272 1.678-4.349C11.383.527 12.924-.045 14.737-.045l2.937.005c.642 0 1.164.501 1.164 1.115v3.306c0 .615-.523 1.115-1.166 1.115l-1.977.001c-.604 0-.757.116-.79.151-.054.059-.118.225-.118.684V7.74h2.736c.206 0 .406.049.578.14.37.198.6.572.6.976l-.002 3.56c0 .615-.523 1.115-1.166 1.115h-2.746v8.308c0 .616-.524 1.116-1.167 1.116Zm-3.608-1.348h3.365v-8.679c0-.41.35-.745.778-.745h3.134l.002-3.094h-3.136c-.429 0-.778-.334-.778-.745V6.332c0-.527.056-1.126.471-1.576.503-.545 1.294-.607 1.846-.607l1.734-.001v-2.84l-2.692-.005c-2.913 0-4.724 1.784-4.724 4.655v2.386c0 .41-.349.745-.778.745H6.599v3.094h2.635c.429 0 .778.334.778.745v8.679Zm7.659-20.299Z"/></g><defs><clipPath id="a"><path fill="#fff" d="M0 0h24v23H0z"/></clipPath></defs></svg>
